icons/modern/no-smoking.svg

<svg width="32" height="32" viewBox="0 0 32 32" fill="none" xmlns="http://www.w3.org/2000/svg">
<g filter="url(#filter0_i_18590_592)">
<path d="M24.4926 22.0997C25.7799 20.3103 26.5424 18.1174 26.5424 15.75C26.5424 9.71996 21.6324 4.80996 15.6024 4.81996C13.235 4.81996 11.0422 5.58242 9.25278 6.86961C9.12975 6.95811 9.11786 7.13541 9.22506 7.24254L24.1198 22.1275C24.2269 22.2346 24.4041 22.2227 24.4926 22.0997Z" fill="url(#paint0_linear_18590_592)"/>
<path d="M6.72203 9.39029C5.43403 11.1797 4.66235 13.373 4.66235 15.75C4.66235 21.78 9.57235 26.69 15.6024 26.69C17.9698 26.69 20.1628 25.9182 21.961 24.6302C22.0844 24.5418 22.0966 24.3642 21.9892 24.2568L7.09493 9.36254C6.98778 9.25539 6.81055 9.26731 6.72203 9.39029Z" fill="url(#paint1_linear_18590_592)"/>
</g>
<g filter="url(#filter1_i_18590_592)">
<path d="M21.7275 9.56732L21.3853 10.6228C21.2185 11.1376 21.2673 11.698 21.5207 12.1762L21.925 12.9389C22.0779 13.2274 22.1579 13.549 22.1579 13.8755V15.0094C22.1579 15.2487 22.4617 15.3513 22.6067 15.1609L23.3089 14.2394C23.8354 13.5486 23.8557 12.5969 23.3593 11.8842L22.6743 10.9005C22.5369 10.7033 22.4362 10.4828 22.377 10.2498L22.2076 9.58288C22.1459 9.33989 21.8048 9.32884 21.7275 9.56732Z" fill="#504D52"/>
<path d="M6.12427 16.75C6.12427 16.1977 6.57198 15.75 7.12427 15.75H20.8743C21.0123 15.75 21.1243 15.862 21.1243 16V18.5C21.1243 18.6381 21.0123 18.75 20.8743 18.75H7.12427C6.57198 18.75 6.12427 18.3023 6.12427 17.75V16.75Z" fill="#504D52"/>
<path d="M22.1243 16C22.1243 15.862 22.2362 15.75 22.3743 15.75H22.8743C23.0123 15.75 23.1243 15.862 23.1243 16V18.5C23.1243 18.6381 23.0123 18.75 22.8743 18.75H22.3743C22.2362 18.75 22.1243 18.6381 22.1243 18.5V16Z" fill="#504D52"/>
</g>
<g filter="url(#filter2_iii_18590_592)">
<path d="M15.6023 1.80005C7.91234 1.80005 1.65234 8.06005 1.65234 15.75C1.65234 23.44 7.91234 29.7 15.6023 29.7C23.2923 29.7 29.5523 23.45 29.5523 15.75C29.5523 8.05005 23.3023 1.80005 15.6023 1.80005ZM26.5423 15.75C26.5423 18.1175 25.7798 20.3104 24.4926 22.0998C24.4041 22.2227 24.2269 22.2347 24.1198 22.1276L9.22505 7.24262C9.11785 7.13549 9.12974 6.9582 9.25277 6.8697C11.0421 5.58251 13.235 4.82005 15.6023 4.82005C21.6323 4.81005 26.5423 9.72005 26.5423 15.75ZM4.66234 15.75C4.66234 13.3731 5.43402 11.1798 6.72202 9.39038C6.81054 9.2674 6.98777 9.25548 7.09492 9.36262L21.9892 24.2569C22.0966 24.3643 22.0844 24.5419 21.961 24.6303C20.1628 25.9183 17.9698 26.69 15.6023 26.69C9.57234 26.69 4.66234 21.78 4.66234 15.75Z" fill="url(#paint2_linear_18590_592)"/>
</g>
<defs>
<filter id="filter0_i_18590_592" x="4.36235" y="4.81995" width="22.18" height="22.17" filterUnits="userSpaceOnUse" color-interpolation-filters="sRGB">
<feFlood flood-opacity="0" result="BackgroundImageFix"/>
<feBlend mode="normal" in="SourceGraphic" in2="BackgroundImageFix" result="shape"/>
<feColorMatrix in="SourceAlpha" type="matrix" values="0 0 0 0 0 0 0 0 0 0 0 0 0 0 0 0 0 0 127 0" result="hardAlpha"/>
<feOffset dx="-0.3" dy="0.3"/>
<feGaussianBlur stdDeviation="0.3"/>
<feComposite in2="hardAlpha" operator="arithmetic" k2="-1" k3="1"/>
<feColorMatrix type="matrix" values="0 0 0 0 0.901961 0 0 0 0 0.819608 0 0 0 0 0.901961 0 0 0 1 0"/>
<feBlend mode="normal" in2="shape" result="effect1_innerShadow_18590_592"/>
</filter>
<filter id="filter1_i_18590_592" x="5.72427" y="9.39441" width="17.9939" height="9.75559" filterUnits="userSpaceOnUse" color-interpolation-filters="sRGB">
<feFlood flood-opacity="0" result="BackgroundImageFix"/>
<feBlend mode="normal" in="SourceGraphic" in2="BackgroundImageFix" result="shape"/>
<feColorMatrix in="SourceAlpha" type="matrix" values="0 0 0 0 0 0 0 0 0 0 0 0 0 0 0 0 0 0 127 0" result="hardAlpha"/>
<feOffset dx="-0.4" dy="0.4"/>
<feGaussianBlur stdDeviation="0.5"/>
<feComposite in2="hardAlpha" operator="arithmetic" k2="-1" k3="1"/>
<feColorMatrix type="matrix" values="0 0 0 0 0.184314 0 0 0 0 0.164706 0 0 0 0 0.203922 0 0 0 1 0"/>
<feBlend mode="normal" in2="shape" result="effect1_innerShadow_18590_592"/>
</filter>
<filter id="filter2_iii_18590_592" x="1.35234" y="1.40005" width="28.6" height="28.6" filterUnits="userSpaceOnUse" color-interpolation-filters="sRGB">
<feFlood flood-opacity="0" result="BackgroundImageFix"/>
<feBlend mode="normal" in="SourceGraphic" in2="BackgroundImageFix" result="shape"/>
<feColorMatrix in="SourceAlpha" type="matrix" values="0 0 0 0 0 0 0 0 0 0 0 0 0 0 0 0 0 0 127 0" result="hardAlpha"/>
<feOffset dy="-0.4"/>
<feGaussianBlur stdDeviation="0.2"/>
<feComposite in2="hardAlpha" operator="arithmetic" k2="-1" k3="1"/>
<feColorMatrix type="matrix" values="0 0 0 0 0.882353 0 0 0 0 0.113725 0 0 0 0 0.333333 0 0 0 1 0"/>
<feBlend mode="normal" in2="shape" result="effect1_innerShadow_18590_592"/>
<feColorMatrix in="SourceAlpha" type="matrix" values="0 0 0 0 0 0 0 0 0 0 0 0 0 0 0 0 0 0 127 0" result="hardAlpha"/>
<feOffset dx="0.4"/>
<feGaussianBlur stdDeviation="0.2"/>
<feComposite in2="hardAlpha" operator="arithmetic" k2="-1" k3="1"/>
<feColorMatrix type="matrix" values="0 0 0 0 0.827451 0 0 0 0 0.168627 0 0 0 0 0.172549 0 0 0 1 0"/>
<feBlend mode="normal" in2="effect1_innerShadow_18590_592" result="effect2_innerShadow_18590_592"/>
<feColorMatrix in="SourceAlpha" type="matrix" values="0 0 0 0 0 0 0 0 0 0 0 0 0 0 0 0 0 0 127 0" result="hardAlpha"/>
<feOffset dx="-0.3" dy="0.3"/>
<feGaussianBlur stdDeviation="0.15"/>
<feComposite in2="hardAlpha" operator="arithmetic" k2="-1" k3="1"/>
<feColorMatrix type="matrix" values="0 0 0 0 1 0 0 0 0 0.458824 0 0 0 0 0.568627 0 0 0 1 0"/>
<feBlend mode="normal" in2="effect2_innerShadow_18590_592" result="effect3_innerShadow_18590_592"/>
</filter>
<linearGradient id="paint0_linear_18590_592" x1="21.6523" y1="7.54996" x2="11.7148" y2="18.2375" gradientUnits="userSpaceOnUse">
<stop stop-color="#FFF7FF"/>
<stop offset="1" stop-color="#FBF2FF"/>
</linearGradient>
<linearGradient id="paint1_linear_18590_592" x1="21.6523" y1="7.54996" x2="11.7148" y2="18.2375" gradientUnits="userSpaceOnUse">
<stop stop-color="#FFF7FF"/>
<stop offset="1" stop-color="#FBF2FF"/>
</linearGradient>
<linearGradient id="paint2_linear_18590_592" x1="25.8751" y1="15.7501" x2="2.81256" y2="15.75" gradientUnits="userSpaceOnUse">
<stop stop-color="#FF5075"/>
<stop offset="1" stop-color="#FF4B51"/>
</linearGradient>
</defs>
</svg>

<svg width="32" height="32" fill="none" xmlns="http://www.w3.org/2000/svg"><g filter="url(#a)"><path d="M24.493 22.1a10.84 10.84 0 0 0 2.05-6.35c0-6.03-4.91-10.94-10.94-10.93-2.368 0-4.56.762-6.35 2.05a.245.245 0 0 0-.028.373L24.12 22.128a.245.245 0 0 0 .373-.028Z" fill="url(#b)"/><path d="M6.722 9.39a10.852 10.852 0 0 0-2.06 6.36c0 6.03 4.91 10.94 10.94 10.94 2.368 0 4.56-.772 6.359-2.06a.245.245 0 0 0 .028-.373L7.095 9.363a.245.245 0 0 0-.373.027Z" fill="url(#c)"/></g><g filter="url(#d)" fill="#504D52"><path d="m21.727 9.567-.342 1.056a2 2 0 0 0 .136 1.553l.404.763a2 2 0 0 1 .233.937v1.133c0 .24.304.342.449.152l.702-.922a2 2 0 0 0 .05-2.355l-.685-.984a2 2 0 0 1-.297-.65l-.17-.667c-.061-.243-.402-.254-.48-.016ZM6.124 16.75a1 1 0 0 1 1-1h13.75a.25.25 0 0 1 .25.25v2.5a.25.25 0 0 1-.25.25H7.124a1 1 0 0 1-1-1v-1ZM22.124 16a.25.25 0 0 1 .25-.25h.5a.25.25 0 0 1 .25.25v2.5a.25.25 0 0 1-.25.25h-.5a.25.25 0 0 1-.25-.25V16Z"/></g><g filter="url(#e)"><path d="M15.602 1.8c-7.69 0-13.95 6.26-13.95 13.95 0 7.69 6.26 13.95 13.95 13.95 7.69 0 13.95-6.25 13.95-13.95 0-7.7-6.25-13.95-13.95-13.95Zm10.94 13.95c0 2.367-.762 4.56-2.05 6.35a.245.245 0 0 1-.372.028L9.225 7.243a.245.245 0 0 1 .028-.373 10.84 10.84 0 0 1 6.35-2.05c6.03-.01 10.94 4.9 10.94 10.93Zm-21.88 0c0-2.377.772-4.57 2.06-6.36a.245.245 0 0 1 .373-.027l14.894 14.894a.245.245 0 0 1-.028.373 10.891 10.891 0 0 1-6.359 2.06c-6.03 0-10.94-4.91-10.94-10.94Z" fill="url(#f)"/></g><defs><linearGradient id="b" x1="21.652" y1="7.55" x2="11.715" y2="18.238" gradientUnits="userSpaceOnUse"><stop stop-color="#FFF7FF"/><stop offset="1" stop-color="#FBF2FF"/></linearGradient><linearGradient id="c" x1="21.652" y1="7.55" x2="11.715" y2="18.238" gradientUnits="userSpaceOnUse"><stop stop-color="#FFF7FF"/><stop offset="1" stop-color="#FBF2FF"/></linearGradient><linearGradient id="f" x1="25.875" y1="15.75" x2="2.813" y2="15.75" gradientUnits="userSpaceOnUse"><stop stop-color="#FF5075"/><stop offset="1" stop-color="#FF4B51"/></linearGradient><filter id="a" x="4.362" y="4.82" width="22.18" height="22.17" filterUnits="userSpaceOnUse" color-interpolation-filters="sRGB"><feFlood flood-opacity="0" result="BackgroundImageFix"/><feBlend in="SourceGraphic" in2="BackgroundImageFix" result="shape"/><feColorMatrix in="SourceAlpha" values="0 0 0 0 0 0 0 0 0 0 0 0 0 0 0 0 0 0 127 0" result="hardAlpha"/><feOffset dx="-.3" dy=".3"/><feGaussianBlur stdDeviation=".3"/><feComposite in2="hardAlpha" operator="arithmetic" k2="-1" k3="1"/><feColorMatrix values="0 0 0 0 0.901961 0 0 0 0 0.819608 0 0 0 0 0.901961 0 0 0 1 0"/><feBlend in2="shape" result="effect1_innerShadow_18590_592"/></filter><filter id="d" x="5.724" y="9.394" width="17.994" height="9.756" filterUnits="userSpaceOnUse" color-interpolation-filters="sRGB"><feFlood flood-opacity="0" result="BackgroundImageFix"/><feBlend in="SourceGraphic" in2="BackgroundImageFix" result="shape"/><feColorMatrix in="SourceAlpha" values="0 0 0 0 0 0 0 0 0 0 0 0 0 0 0 0 0 0 127 0" result="hardAlpha"/><feOffset dx="-.4" dy=".4"/><feGaussianBlur stdDeviation=".5"/><feComposite in2="hardAlpha" operator="arithmetic" k2="-1" k3="1"/><feColorMatrix values="0 0 0 0 0.184314 0 0 0 0 0.164706 0 0 0 0 0.203922 0 0 0 1 0"/><feBlend in2="shape" result="effect1_innerShadow_18590_592"/></filter><filter id="e" x="1.352" y="1.4" width="28.6" height="28.6" filterUnits="userSpaceOnUse" color-interpolation-filters="sRGB"><feFlood flood-opacity="0" result="BackgroundImageFix"/><feBlend in="SourceGraphic" in2="BackgroundImageFix" result="shape"/><feColorMatrix in="SourceAlpha" values="0 0 0 0 0 0 0 0 0 0 0 0 0 0 0 0 0 0 127 0" result="hardAlpha"/><feOffset dy="-.4"/><feGaussianBlur stdDeviation=".2"/><feComposite in2="hardAlpha" operator="arithmetic" k2="-1" k3="1"/><feColorMatrix values="0 0 0 0 0.882353 0 0 0 0 0.113725 0 0 0 0 0.333333 0 0 0 1 0"/><feBlend in2="shape" result="effect1_innerShadow_18590_592"/><feColorMatrix in="SourceAlpha" values="0 0 0 0 0 0 0 0 0 0 0 0 0 0 0 0 0 0 127 0" result="hardAlpha"/><feOffset dx=".4"/><feGaussianBlur stdDeviation=".2"/><feComposite in2="hardAlpha" operator="arithmetic" k2="-1" k3="1"/><feColorMatrix values="0 0 0 0 0.827451 0 0 0 0 0.168627 0 0 0 0 0.172549 0 0 0 1 0"/><feBlend in2="effect1_innerShadow_18590_592" result="effect2_innerShadow_18590_592"/><feColorMatrix in="SourceAlpha" values="0 0 0 0 0 0 0 0 0 0 0 0 0 0 0 0 0 0 127 0" result="hardAlpha"/><feOffset dx="-.3" dy=".3"/><feGaussianBlur stdDeviation=".15"/><feComposite in2="hardAlpha" operator="arithmetic" k2="-1" k3="1"/><feColorMatrix values="0 0 0 0 1 0 0 0 0 0.458824 0 0 0 0 0.568627 0 0 0 1 0"/><feBlend in2="effect2_innerShadow_18590_592" result="effect3_innerShadow_18590_592"/></filter></defs></svg>
